KINDER
CUT[WAS HABEN WIR GAENSE FUER KLEIDUNG AN]
REG[Europa, Mitteleuropa, Deutschland, Schlesien]
KEY[K0646  16  G 2/4]
MEL[-5_  (1_1_1_)(1_1_1_)  1_-6_-5__
    -6__-7__  1__0_
    12  3_3_3_3_  4_4_4_
    43  2_2_2_2_  5_5_5__
    1__2__  3__0_
    2_  1-7123_2_  1__0_ //] >>
FCT[Kinder -, Tier - Lied]
